!!!OTL: Vergaenglichkeit und Trost.
!!!OTL-incipit: EINSAM WANDL ICH
!!!COM: A. Pohlenz
!!!ARE: Europa, Mitteleuropa, Deutschland
!!!SCT: F1076
!!!TXL: @@DE
!!!YEM: Copyright 1995, estate of Helmut Schaffrath.
**kern	**text	**text	**text	**text
*ICvox	*	*	*	*
*clefG2	*	*	*	*
*M4/4	*	*	*	*
*met(c)	*	*	*	*
*k[b-e-a-d-]	*	*	*	*
*A-:	*	*	*	*
!LO:TX:a:t=Allegro agitato.	!	!	!	!
{8cc	1._Einſam	2._Trauernd	3._Muß denn	4._Hoffnung
8cc	.	.	.	.
=1	=1	=1	=1	=1
4.cc	wandl'	ruft	Al-	heißt
8a-	ich	mein	-les	ſie,
(>4a-	und	Geiſt	in	die
16b-qqL	.	.	.	.
16a-qqJ	.	.	.	.
8g)	.	.	.	.
8f	es	die	der	im
=2	=2	=2	=2	=2
8fqq	.	.	.	.
4en	1._rauſchet	2._Stunden	3._Wel-	4._Schooße
4e	.	.	-le	.
4r}	.	.	.	.
{8f	durch	der	trü-	e-
8f	die	Ver-	-ber	-wig
=3	=3	=3	=3	=3
4.g	Blät-	-gan-	Ʒei-	fri-
8g	-ter	-genheit	-ten	-ſches
8dd-qq	.	.	.	.
4.cc	Herb-	.	un-	Le-
8b-	-ſtes-	ʒu-	-ter-	-ben
=4	=4	=4	=4	=4
4b-qq	.	.	.	.
2a-	-luft,	-rück!	-gehn?	trägt,
4r}	.	.	.	.
{8an	wo	Ach,	je-	ſchöner
8an	kein	wie	-de	.
=5	=5	=5	=5	=5
4.b-	Vo-	iſt	Blu-	duf-
8b-	-gel	ſo	-me	-tend
4.ff	ʒärt-	ſchnell	an	als
8ff	-lich	entſchwunden	der	die
=6	=6	=6	=6	=6
4ff	lauſchet,	.	Stelle,	Ro-
4cc}	.	.	.	-ſe
{4dd-	noch	ei-	wo	dem,
4cc	die	-nes	ſie	der
=7	=7	=7	=7	=7
4.a-	1._Gat-	2._kur-	3._blüht,	4._gläu-
8f	-tin	-ʒen	ihr	-big
4a-	ʒu	Le-	Grab	treu
4g	ſich	-bens	auch	ſie
=8	=8	=8	=8	=8
2f	ruſt.	Glück!	ſehn?	pflegt.
4r}	.	.	.	.
{8dd-	Ach	Sag'	Nein,	Hoffnung
8cc	ſchon	was	es	.
=9	=9	=9	=9	=9
8ccL	ſal-	biſt	keimt	würʒt
8b-J	.	.	.	.
8anL	-len	du	im	die
8b-J	.	.	.	.
8aL	welt	flie-	Hei-	bit-
8b-J	.	.	.	.
8ffL	die	-hend	-lig-	-tern
8ee-J	.	.	.	.
=10	=10	=10	=10	=10
(4.ee-	Blät-	Le-	-thu-	Stun-
8cc)	.	.	.	.
8a-	-ter,	-ben,	-me	-den,
8r}	.	.	.	.
{8dd-	und	das	un-	wenn
8cc	die	ſo	-ſers	das
=11	=11	=11	=11	=11
8ccL	Blumen	feſt	Herʒens	Herʒ
8b-J	.	.	.	.
8a-L	.	uns	.	in
8gJ	.	.	.	.
8fL	ſind	an	ʒart	Lei-
8e-J	.	.	.	.
8ee-L	er-	ſich	ver-	-den
8dd-J	.	.	.	.
=12	=12	=12	=12	=12
4bqq	.	.	.	.
2cc}	-1._bleicht.	2._ʒieht?	3._hüllt	4._bricht.
{4.aa-	und	un-	un-	Wem
8gg	das	-ter	-ʒer-	die
=13	=13	=13	=13	=13
4gg	hol-	Harren,	-ſtöt-	Hoffnung
4ff	-de	.	-bar	.
8ffL	Frühlings-	un-	ei-	nicht
8gg-J	.	.	.	.
8ffL	.	-ter	-ne	ent-
8ee-J	.	.	.	.
=14	=14	=14	=14	=14
8ee-qq	.	.	.	.
4dd-	-wet-	Stre-	Blu-	-ſchwunden,
4dd-}	-ter	-ben	-me,	.
{4ff^	und	kommt	ſüß	dem
8ee-L	die	des	mit	ſtirbt
8dd-J	.	.	.	.
=15	=15	=15	=15	=15
8ccL	mil-	Ta-	Bal-	Luſt
8ee-J	.	.	.	.
8dd-L	-de	-ges	-ſam-	und
8b-J	.	.	.	.
4a-	Wär-	Glück	-duft	Le-
8ccL	-me	und	er-	-ben
8b-J	.	.	.	.
=16	=16	=16	=16	=16
2a-	weicht.	flieht.	-füllt.	nicht.
4r}	.	.	.	.
==	==	==	==	==
!!!AGN: Trost - Lied
!!!ONB: ESAC (Essen Associative Code) Database: FINK
!!!AMT: simple quadruple
!!!AIN: vox
!!!EED: Helmut Schaffrath
!!!EEV: 1.0
!!!GTL: Trauer- Begraebniss- und Trostlieder
!!Text: Wellentreter
!!@@COMMENT:"Aus dem 4ten Hefte der Gesaenge mit Begleitung des Pianoforte von Aug. Pohlenz."
!!@@END:
!!!URL-scan: https://www.digitale-sammlungen.de/en/view/bsb11144622?page=682
!!!ENC: Anna Maria Matuszewska
!!!EEV: 2024/08/09
*-	*-	*-	*-	*-
